X: 1
T: Lord Lovat's Lament
M: 4/4
L: 1/8
R: hornpipe
K: Amaj
(AB)|c2 (ce) dcBA|(c<e)(e>f) e2 (fg)|a2 (ea) (fe)(cA)|(c<B)(B>c) B2 (AB)|
c2 (ce) (dc)(BA)|c<ee>e fecA|(d>e) (fe/d/) c<edB|(B<A)(A>B) A2 (fg)|
a2 (ea) fecA|(c<e)(e>f) e2 (fg)|a2 (ea) (fe)(cA)|(c<B)(B>c) B2 (fg)|
a2 (ea) (fe)(cA)|c<ee>e fecA|(d>e) (fe/d/) c<edB|(B<A)(A>B) A4 ||
